nextgisweb/svg_marker_library/icon/resource/svg_marker_library.svg

<svg enable-background="new 0 0 32 32" version="1.1" viewBox="0 0 32 32" xmlns="http://www.w3.org/2000/svg">
<path d="m25.5 4h-19c-1.209 0-2.218.859-2.45 2h19.95c1.105 0 2 .895 2 2v19.95c1.141-.232 2-1.24 2-2.45v-19c0-1.381-1.119-2.5-2.5-2.5z" fill="#1eabe6"/>
<path d="m29.5 0h-19c-1.209 0-2.218.859-2.45 2h19.95c1.105 0 2 .895 2 2v19.95c1.141-.232 2-1.24 2-2.45v-19c0-1.381-1.119-2.5-2.5-2.5z" fill="#7acdf0"/>
<path d="m17.03 20.51c-.129 2.116-1.087 3.946-2.789 5.297-1.784 1.417-4.307 2.19-6.941 2.19-.823 0-1.657-.076-2.484-.231-.424-.079-.749-.422-.807-.85-.058-.427.166-.844.554-1.032 1.208-.588 1.576-1.7 2.077-3.466.687-2.425 1.546-5.436 6.382-5.913.78-2.578 2.959-5.177 7.163-8.505h-17.685c-1.381 0-2.5 1.119-2.5 2.5v19c0 1.381 1.119 2.5 2.5 2.5h19c1.381 0 2.5-1.119 2.5-2.5v-14.297c-2.621 3.009-4.803 4.652-6.97 5.307z" fill="#106a90"/>
<path d="m21.783 8.028c-4.103 3.128-6.977 5.968-7.817 8.805l2.734 2.734c2.376-.704 4.754-2.841 7.301-5.921v-3.146c-.001-1.284-.972-2.329-2.218-2.472z" fill="#1eabe6"/>
</svg>

<?xml version="1.0" encoding="utf-8"?>
<!-- Generator: Adobe Illustrator 22.0.1, SVG Export Plug-In . SVG Version: 6.00 Build 0)  -->
<svg version="1.1" id="Layer_1" xmlns="http://www.w3.org/2000/svg" xmlns:xlink="http://www.w3.org/1999/xlink" x="0px" y="0px"
	 viewBox="0 0 32 32" enable-background="new 0 0 32 32" xml:space="preserve">
<g>
	<path fill="#81B0DC" d="M25.5,4h-19C5.291,4,4.282,4.859,4.05,6H24c1.105,0,2,0.895,2,2v19.95c1.141-0.232,2-1.24,2-2.45v-19
		C28,5.119,26.881,4,25.5,4z"/>
	<path fill="#DCE8F3" d="M29.5,0h-19C9.291,0,8.282,0.859,8.05,2H28c1.105,0,2,0.895,2,2v19.95c1.141-0.232,2-1.24,2-2.45v-19
		C32,1.119,30.881,0,29.5,0z"/>
	<path fill="#3498DB" d="M17.03,20.51c-0.129,2.116-1.087,3.946-2.789,5.297c-1.784,1.417-4.307,2.19-6.941,2.19
		c-0.823,0-1.657-0.076-2.484-0.231c-0.424-0.079-0.749-0.422-0.807-0.85c-0.058-0.427,0.166-0.844,0.554-1.032
		c1.208-0.588,1.576-1.7,2.077-3.466c0.687-2.425,1.546-5.436,6.382-5.913c0.78-2.578,2.959-5.177,7.163-8.505H2.5
		C1.119,8,0,9.119,0,10.5v19C0,30.881,1.119,32,2.5,32h19c1.381,0,2.5-1.119,2.5-2.5V15.203
		C21.379,18.212,19.197,19.855,17.03,20.51z"/>
	<path fill="#AEC8E0" d="M21.783,8.028c-4.103,3.128-6.977,5.968-7.817,8.805l2.734,2.734c2.376-0.704,4.754-2.841,7.301-5.921V10.5
		C24,9.216,23.029,8.171,21.783,8.028z"/>
</g>
</svg>
